img/recomendation/1.svg

<svg width="44" height="44" viewBox="0 0 44 44" fill="none" xmlns="http://www.w3.org/2000/svg">
<g id="solar:box-bold">
<path id="Vector" d="M32.2264 8.12534L28.5597 6.20033C25.3404 4.51183 23.7307 3.66667 22 3.66667C20.2694 3.66667 18.6597 4.51 15.4404 6.20033L14.8519 6.51017L31.2107 15.8583L38.5734 12.1733C37.389 10.8313 35.4787 9.8285 32.2264 8.12167V8.12534ZM39.8714 14.6007L32.5417 18.2673V23.8333C32.5417 24.198 32.3968 24.5477 32.139 24.8056C31.8811 25.0635 31.5314 25.2083 31.1667 25.2083C30.802 25.2083 30.4523 25.0635 30.1944 24.8056C29.9366 24.5477 29.7917 24.198 29.7917 23.8333V19.6405L23.375 22.8488V40.1573C24.6914 39.8292 26.1892 39.0445 28.5597 37.7997L32.2264 35.8747C36.1699 33.8048 38.1425 32.7708 39.2389 30.91C40.3334 29.051 40.3334 26.7355 40.3334 22.11V21.8955C40.3334 18.425 40.3334 16.2543 39.8714 14.6007ZM20.625 40.1573V22.8507L4.12869 14.6007C3.66669 16.2543 3.66669 18.425 3.66669 21.8918V22.1063C3.66669 26.7355 3.66669 29.051 4.76119 30.91C5.85752 32.7708 7.83019 33.8067 11.7737 35.8765L15.4404 37.7997C17.8109 39.0445 19.3087 39.8292 20.625 40.1573ZM5.42669 12.1752L22 20.4618L28.2535 17.336L11.9625 8.02633L11.7737 8.12534C8.52319 9.83034 6.61102 10.8332 5.42669 12.177V12.1752Z" fill="#13023E"/>
</g>
</svg>

<svg width="44" height="44" viewBox="0 0 44 44" fill="none" xmlns="http://www.w3.org/2000/svg"><g id="solar:box-bold"><path id="Vector" d="M32.226 8.125L28.56 6.2C25.34 4.512 23.73 3.667 22 3.667c-1.73 0-3.34.843-6.56 2.533l-.588.31 16.359 9.348 7.362-3.685c-1.184-1.342-3.094-2.345-6.347-4.051v.003zm7.645 6.476l-7.33 3.666v5.566a1.375 1.375 0 01-2.75 0v-4.192l-6.416 3.208v17.308c1.316-.328 2.814-1.112 5.185-2.357l3.666-1.925c3.944-2.07 5.916-3.104 7.013-4.965 1.094-1.859 1.094-4.175 1.094-8.8v-.215c0-3.47 0-5.64-.462-7.294zM20.625 40.157V22.851L4.129 14.6c-.462 1.653-.462 3.824-.462 7.29v.215c0 4.63 0 6.945 1.094 8.804 1.097 1.86 3.07 2.897 7.013 4.966L15.44 37.8c2.37 1.245 3.869 2.03 5.185 2.357zM5.427 12.175L22 20.462l6.253-3.126-16.29-9.31-.19.1c-3.25 1.704-5.162 2.707-6.346 4.051v-.002z" fill="#13023E"/></g></svg>
